humanity-icon-theme/Humanity/apps/16/preferences-desktop-accessibility.svg

<?xml version="1.0" encoding="UTF-8" standalone="no"?>
<!-- Created with Inkscape (http://www.inkscape.org/) -->
<svg
   xmlns:svg="http://www.w3.org/2000/svg"
   xmlns="http://www.w3.org/2000/svg"
   xmlns:xlink="http://www.w3.org/1999/xlink"
   version="1.0"
   width="16"
   height="16"
   id="svg2461">
  <defs
     id="defs2463">
    <linearGradient
       id="linearGradient2490-182-124">
      <stop
         id="stop2788"
         style="stop-color:#1f4b6a;stop-opacity:1"
         offset="0" />
      <stop
         id="stop2790"
         style="stop-color:#4083c2;stop-opacity:1"
         offset="1" />
    </linearGradient>
    <linearGradient
       x1="18.379412"
       y1="44.980297"
       x2="18.379412"
       y2="3.0816143"
       id="linearGradient2457"
       xlink:href="#linearGradient2490-182-124"
       gradientUnits="userSpaceOnUse"
       gradientTransform="matrix(0.3685738,0,0,0.3685738,-0.84577,-0.8457701)" />
    <linearGradient
       id="linearGradient3242-187-536">
      <stop
         id="stop2778"
         style="stop-color:#8badea;stop-opacity:1"
         offset="0" />
      <stop
         id="stop2780"
         style="stop-color:#6396cd;stop-opacity:1"
         offset="0.26238" />
      <stop
         id="stop2782"
         style="stop-color:#3b7caf;stop-opacity:1"
         offset="0.66093999" />
      <stop
         id="stop2784"
         style="stop-color:#194c70;stop-opacity:1"
         offset="1" />
    </linearGradient>
    <radialGradient
       cx="23.895569"
       cy="3.9900031"
       r="20.397499"
       fx="23.895569"
       fy="3.9900031"
       id="radialGradient2455"
       xlink:href="#linearGradient3242-187-536"
       gradientUnits="userSpaceOnUse"
       gradientTransform="matrix(0,0.8796593,-1.1611346,0,12.632931,-21.08413)" />
    <linearGradient
       id="linearGradient4873">
      <stop
         id="stop4875"
         style="stop-color:#ffffff;stop-opacity:1"
         offset="0" />
      <stop
         id="stop4877"
         style="stop-color:#ffffff;stop-opacity:0"
         offset="1" />
    </linearGradient>
    <linearGradient
       x1="63.397362"
       y1="-12.489107"
       x2="63.397362"
       y2="5.4675598"
       id="linearGradient2452"
       xlink:href="#linearGradient4873"
       gradientUnits="userSpaceOnUse"
       gradientTransform="matrix(0.7432394,0,0,0.7432224,-38.229789,10.609333)" />
    <linearGradient
       x1="63.397362"
       y1="-12.489107"
       x2="63.397362"
       y2="5.4675598"
       id="linearGradient2407"
       xlink:href="#linearGradient4873"
       gradientUnits="userSpaceOnUse"
       gradientTransform="matrix(2.1153735,0,0,2.1153253,-107.57709,32.426559)" />
    <radialGradient
       cx="23.895569"
       cy="3.9900031"
       r="20.397499"
       fx="23.895569"
       fy="3.9900031"
       id="radialGradient2410"
       xlink:href="#linearGradient3242-187-536"
       gradientUnits="userSpaceOnUse"
       gradientTransform="matrix(0,2.2874593,-3.0194057,0,36.047437,-50.630156)" />
    <linearGradient
       x1="18.379412"
       y1="44.980297"
       x2="18.379412"
       y2="3.0816143"
       id="linearGradient2412"
       xlink:href="#linearGradient2490-182-124"
       gradientUnits="userSpaceOnUse"
       gradientTransform="matrix(0.9584364,0,0,0.9584366,0.9975246,1.9975253)" />
    <radialGradient
       cx="62.625"
       cy="4.625"
       r="10.625"
       fx="62.625"
       fy="4.625"
       id="radialGradient2415"
       xlink:href="#linearGradient8838"
       gradientUnits="userSpaceOnUse"
       gradientTransform="matrix(2.1647059,0,0,0.7529402,-111.56471,36.517647)" />
    <linearGradient
       id="linearGradient8838">
      <stop
         id="stop8840"
         style="stop-color:#000000;stop-opacity:1"
         offset="0" />
      <stop
         id="stop8842"
         style="stop-color:#000000;stop-opacity:0"
         offset="1" />
    </linearGradient>
    <linearGradient
       x1="63.397362"
       y1="-12.489107"
       x2="63.397362"
       y2="5.4675598"
       id="linearGradient2470"
       xlink:href="#linearGradient4873"
       gradientUnits="userSpaceOnUse"
       gradientTransform="matrix(2.1153735,0,0,2.1153253,-88.502263,10.859551)" />
    <radialGradient
       cx="23.895569"
       cy="3.9900031"
       r="20.397499"
       fx="23.895569"
       fy="3.9900031"
       id="radialGradient2473"
       xlink:href="#linearGradient3242-187-536"
       gradientUnits="userSpaceOnUse"
       gradientTransform="matrix(0,2.2874593,-3.0194057,0,55.122264,-72.197164)" />
    <linearGradient
       x1="18.379412"
       y1="44.980297"
       x2="18.379412"
       y2="3.0816143"
       id="linearGradient2475"
       xlink:href="#linearGradient2490-182-124"
       gradientUnits="userSpaceOnUse"
       gradientTransform="matrix(0.9584364,0,0,0.9584366,20.072352,-19.569483)" />
    <radialGradient
       cx="62.625"
       cy="4.625"
       r="10.625"
       fx="62.625"
       fy="4.625"
       id="radialGradient2478"
       xlink:href="#linearGradient8838"
       gradientUnits="userSpaceOnUse"
       gradientTransform="matrix(2.1647059,0,0,0.7529402,-92.489883,14.950639)" />
    <radialGradient
       cx="23.895569"
       cy="3.9900031"
       r="20.397499"
       fx="23.895569"
       fy="3.9900031"
       id="radialGradient2484"
       xlink:href="#linearGradient3242-187-536"
       gradientUnits="userSpaceOnUse"
       gradientTransform="matrix(0,2.2874593,-3.0194057,0,55.122264,-72.197164)" />
    <linearGradient
       x1="18.379412"
       y1="44.980297"
       x2="18.379412"
       y2="3.0816143"
       id="linearGradient2486"
       xlink:href="#linearGradient2490-182-124"
       gradientUnits="userSpaceOnUse"
       gradientTransform="matrix(0.9584364,0,0,0.9584366,20.072352,-19.569483)" />
    <radialGradient
       cx="23.895569"
       cy="3.9900031"
       r="20.397499"
       fx="23.895569"
       fy="3.9900031"
       id="radialGradient2490"
       xlink:href="#linearGradient3242-187-536"
       gradientUnits="userSpaceOnUse"
       gradientTransform="matrix(0,0.879793,-1.1613111,0,35.389145,-21.088553)" />
    <linearGradient
       x1="18.379412"
       y1="44.980297"
       x2="18.379412"
       y2="3.0816143"
       id="linearGradient2492"
       xlink:href="#linearGradient2490-182-124"
       gradientUnits="userSpaceOnUse"
       gradientTransform="matrix(0.3686298,0,0,0.3686299,21.908395,-0.8471156)" />
  </defs>
  <g
     id="layer1">
    <path
       d="M 8.0000011,0.50182793 C 3.862769,0.50182793 0.501827,3.8627671 0.501827,7.9999997 C 0.501827,12.137233 3.862769,15.498175 8.0000011,15.498172 C 12.137232,15.498172 15.498177,12.137233 15.498173,7.9999997 C 15.498173,3.8627671 12.137232,0.50182793 8.0000011,0.50182793 z"
       id="path2449"
       style="fill:url(#radialGradient2455);fill-opacity:1;stroke:url(#linearGradient2457);stroke-width:1.00365424;stroke-linecap:round;stroke-linejoin:round;stroke-miterlimit:4;stroke-dasharray:none;stroke-dashoffset:0;stroke-opacity:1" />
    <path
       d="M 14.500001,7.9997709 C 14.500001,11.589737 11.589636,14.5 8.0000818,14.5 C 4.4101984,14.5 1.5000001,11.589705 1.5000001,7.9997709 C 1.5000001,4.4099703 4.4101984,1.5000014 8.0000818,1.5000014 C 11.589636,1.5000014 14.500001,4.4099703 14.500001,7.9997709 L 14.500001,7.9997709 z"
       id="path2451"
       style="opacity:0.4;fill:none;fill-opacity:1;fill-rule:nonzero;stroke:url(#linearGradient2452);stroke-width:1;stroke-miterlimit:4;stroke-dasharray:none;stroke-opacity:1" />
  </g>
  <path
     d="M 9.3528233,3.6442076 C 9.3528233,4.339499 8.7741385,4.9037939 8.0611164,4.9037939 C 7.3480941,4.9037939 6.7694094,4.339499 6.7694094,3.6442076 C 6.7694094,2.9489158 7.3480941,2.384621 8.0611164,2.384621 C 8.7741385,2.384621 9.3528233,2.9489158 9.3528233,3.6442076 z M 12.576746,4.9835563 C 12.517001,4.9929959 12.460549,5.0159737 12.412166,5.0505869 L 7.999866,5.7215306 L 3.6113306,5.0413341 C 3.497887,4.9611001 3.3383897,4.9370741 3.2116296,4.996642 C 3.0848696,5.0562091 3.0017691,5.1973942 3.0000214,5.3317413 C 2.9984219,5.4661068 3.0864453,5.5819829 3.2116296,5.6445047 L 6.6504753,6.7082771 L 6.6269556,9.1503394 L 5.4135255,12.807761 C 5.2966579,12.974305 5.3322778,13.188194 5.5075741,13.299225 C 5.6828785,13.410273 5.9314743,13.376438 6.0483543,13.209875 L 8.0065854,9.2620452 L 9.9278529,13.203052 C 10.031741,13.375795 10.263321,13.435802 10.445117,13.337096 C 10.626914,13.23839 10.690074,13.018358 10.58619,12.845614 L 9.3952846,9.1724574 L 9.3482676,6.873421 L 12.835364,5.6314198 C 12.976258,5.5375433 13.037466,5.3598205 12.976441,5.2069676 C 12.915413,5.054098 12.747702,4.9650335 12.576732,4.9835563 L 12.576746,4.9835563 z"
     id="path6668"
     style="fill:#ffffff;fill-opacity:1;stroke:none" />
</svg>

<?xml version="1.0" encoding="UTF-8" standalone="no"?>
<!-- Created with Inkscape (http://www.inkscape.org/) -->
<svg id="svg2461" xmlns="http://www.w3.org/2000/svg" height="16" width="16" version="1.0" xmlns:xlink="http://www.w3.org/1999/xlink">
 <defs id="defs2463">
  <linearGradient id="linearGradient2457" y2="3.0816" gradientUnits="userSpaceOnUse" x2="18.379" gradientTransform="matrix(.36857 0 0 .36857 -.84577 -.84577)" y1="44.98" x1="18.379">
   <stop id="stop2788" style="stop-color:#1f4b6a" offset="0"/>
   <stop id="stop2790" style="stop-color:#4083c2" offset="1"/>
  </linearGradient>
  <radialGradient id="radialGradient2455" gradientUnits="userSpaceOnUse" cy="3.99" cx="23.896" gradientTransform="matrix(0 .87966 -1.1611 0 12.633 -21.084)" r="20.397">
   <stop id="stop2778" style="stop-color:#8badea" offset="0"/>
   <stop id="stop2780" style="stop-color:#6396cd" offset=".26238"/>
   <stop id="stop2782" style="stop-color:#3b7caf" offset=".66094"/>
   <stop id="stop2784" style="stop-color:#194c70" offset="1"/>
  </radialGradient>
  <linearGradient id="linearGradient2452" y2="5.4676" gradientUnits="userSpaceOnUse" x2="63.397" gradientTransform="matrix(.74324 0 0 .74322 -38.23 10.609)" y1="-12.489" x1="63.397">
   <stop id="stop4875" style="stop-color:#fff" offset="0"/>
   <stop id="stop4877" style="stop-color:#fff;stop-opacity:0" offset="1"/>
  </linearGradient>
 </defs>
 <g id="layer1">
  <path id="path2449" style="stroke-linejoin:round;stroke:url(#linearGradient2457);stroke-linecap:round;stroke-width:1.0037;fill:url(#radialGradient2455)" d="m8 0.50183c-4.1372 0-7.4982 3.361-7.4982 7.4982 0.00003 4.137 3.361 7.498 7.4982 7.498 4.137 0 7.498-3.361 7.498-7.498 0-4.1372-3.361-7.4982-7.498-7.4982z"/>
  <path id="path2451" style="opacity:.4;stroke:url(#linearGradient2452);fill:none" d="m14.5 7.9998c0 3.5902-2.91 6.5002-6.4999 6.5002s-6.5001-2.91-6.5001-6.5002c0-3.5898 2.9102-6.4998 6.5001-6.4998s6.4999 2.91 6.4999 6.4998z"/>
 </g>
 <path id="path6668" style="fill:#fff" d="m9.3528 3.6442c0 0.6953-0.5787 1.2596-1.2917 1.2596s-1.2917-0.5643-1.2917-1.2596 0.5787-1.2596 1.2917-1.2596 1.2917 0.5643 1.2917 1.2596zm3.2242 1.3394c-0.06 0.0094-0.116 0.0324-0.165 0.067l-4.4121 0.6709-4.3886-0.6802c-0.1134-0.0802-0.2729-0.1042-0.3997-0.0447-0.1267 0.0596-0.2098 0.2008-0.2116 0.3351-0.0016 0.1344 0.0864 0.2503 0.2116 0.3128l3.4389 1.0638-0.0235 2.442-1.2135 3.6577c-0.1168 0.166-0.0812 0.38 0.0941 0.491s0.4239 0.077 0.5408-0.089l1.9582-3.948 1.9213 3.941c0.1041 0.173 0.3351 0.233 0.5171 0.134s0.245-0.319 0.141-0.491l-1.1907-3.6735-0.047-2.2991 3.4867-1.242c0.141-0.0939 0.202-0.2716 0.141-0.4244-0.061-0.1529-0.228-0.242-0.399-0.2234z"/>
</svg>
